Dominus_Dark_Funeral/22/apps/kjumpingcube.svg

<svg xmlns="http://www.w3.org/2000/svg" width="24" height="24"><defs><linearGradient id="a"><stop offset="0"/><stop offset="1" stop-opacity="0"/></linearGradient></defs><path d="M14.65 4.87a.54.54 0 0 0-.74.21l-1.96 3.49-1.57-3.25a.54.54 0 0 0-.73-.25L.86 9.32a.54.54 0 0 0-.25.73l4.26 8.8a.54.54 0 0 0 .72.24l6.56-3.17 5.7 3.2a.54.54 0 0 0 .74-.2l4.79-8.52a.54.54 0 0 0-.21-.74zm1.02 1.51a1.36 1.36 0 0 1 .52 1.85 1.36 1.36 0 0 1-1.85.52 1.36 1.36 0 0 1-.52-1.85 1.36 1.36 0 0 1 1.85-.52zm5.68 3.19a1.36 1.36 0 0 1 .52 1.85 1.36 1.36 0 0 1-1.85.52 1.36 1.36 0 0 1-.52-1.85 1.36 1.36 0 0 1 1.85-.52zM9.8 6.55a1.36 1.36 0 0 1 .55.59 1.36 1.36 0 0 1-.63 1.81 1.36 1.36 0 0 1-1.82-.63 1.36 1.36 0 0 1 .64-1.81 1.36 1.36 0 0 1 1.26.04zm7.1 4.27a1.36 1.36 0 0 1 .52 1.84 1.36 1.36 0 0 1-1.84.52 1.36 1.36 0 0 1-.52-1.84 1.36 1.36 0 0 1 1.84-.52zm-4.43 1.24a1.36 1.36 0 0 1 .52 1.85 1.36 1.36 0 0 1-1.85.52 1.36 1.36 0 0 1-.52-1.85 1.36 1.36 0 0 1 1.85-.52zm5.68 3.2a1.36 1.36 0 0 1 .52 1.84 1.36 1.36 0 0 1-1.85.52 1.36 1.36 0 0 1-.52-1.85 1.36 1.36 0 0 1 1.85-.52zM3.98 9.4a1.36 1.36 0 0 1 .52.57 1.36 1.36 0 0 1-.63 1.8 1.36 1.36 0 0 1-1.82-.62 1.36 1.36 0 0 1 .63-1.81 1.36 1.36 0 0 1 1.3.06zm2.8 5.85a1.36 1.36 0 0 1 .56.58 1.36 1.36 0 0 1-.63 1.82 1.36 1.36 0 0 1-1.82-.63 1.36 1.36 0 0 1 .63-1.82 1.36 1.36 0 0 1 1.27.05z" fill="#e6e6e6" stroke-width=".68"/></svg>

<?xml version="1.0" encoding="UTF-8" standalone="no"?>
<svg
   xmlns:dc="http://purl.org/dc/elements/1.1/"
   xmlns:cc="http://creativecommons.org/ns#"
   xmlns:rdf="http://www.w3.org/1999/02/22-rdf-syntax-ns#"
   xmlns:svg="http://www.w3.org/2000/svg"
   xmlns="http://www.w3.org/2000/svg"
   xmlns:sodipodi="http://sodipodi.sourceforge.net/DTD/sodipodi-0.dtd"
   xmlns:inkscape="http://www.inkscape.org/namespaces/inkscape"
   width="24"
   height="24"
   version="1.1"
   id="svg11"
   sodipodi:docname="kjumpingcube.svg"
   inkscape:version="0.92.4 (5da689c313, 2019-01-14)">
  <metadata
     id="metadata15">
    <rdf:RDF>
      <cc:Work
         rdf:about="">
        <dc:format>image/svg+xml</dc:format>
        <dc:type
           rdf:resource="http://purl.org/dc/dcmitype/StillImage" />
        <dc:title></dc:title>
      </cc:Work>
    </rdf:RDF>
  </metadata>
  <sodipodi:namedview
     pagecolor="#ffffff"
     bordercolor="#666666"
     borderopacity="1"
     objecttolerance="10"
     gridtolerance="10"
     guidetolerance="10"
     inkscape:pageopacity="0"
     inkscape:pageshadow="2"
     inkscape:window-width="1138"
     inkscape:window-height="480"
     id="namedview13"
     showgrid="false"
     inkscape:zoom="9.8333333"
     inkscape:cx="1.0677966"
     inkscape:cy="12"
     inkscape:window-x="0"
     inkscape:window-y="25"
     inkscape:window-maximized="0"
     inkscape:current-layer="svg11" />
  <defs
     id="defs7">
    <linearGradient
       id="a">
      <stop
         offset="0"
         id="stop2" />
      <stop
         offset="1"
         stop-opacity="0"
         id="stop4" />
    </linearGradient>
  </defs>
  <path
     d="M 14.65,4.87 A 0.54,0.54 0 0 0 13.91,5.08 L 11.95,8.57 10.38,5.32 A 0.54,0.54 0 0 0 9.65,5.07 L 0.86,9.32 a 0.54,0.54 0 0 0 -0.25,0.73 l 4.26,8.8 a 0.54,0.54 0 0 0 0.72,0.24 l 6.56,-3.17 5.7,3.2 a 0.54,0.54 0 0 0 0.74,-0.2 L 23.38,10.4 A 0.54,0.54 0 0 0 23.17,9.66 Z m 1.02,1.51 A 1.36,1.36 0 0 1 16.19,8.23 1.36,1.36 0 0 1 14.34,8.75 1.36,1.36 0 0 1 13.82,6.9 1.36,1.36 0 0 1 15.67,6.38 Z m 5.68,3.19 a 1.36,1.36 0 0 1 0.52,1.85 1.36,1.36 0 0 1 -1.85,0.52 1.36,1.36 0 0 1 -0.52,-1.85 1.36,1.36 0 0 1 1.85,-0.52 z M 9.8,6.55 A 1.36,1.36 0 0 1 10.35,7.14 1.36,1.36 0 0 1 9.72,8.95 1.36,1.36 0 0 1 7.9,8.32 1.36,1.36 0 0 1 8.54,6.51 1.36,1.36 0 0 1 9.8,6.55 Z m 7.1,4.27 a 1.36,1.36 0 0 1 0.52,1.84 1.36,1.36 0 0 1 -1.84,0.52 1.36,1.36 0 0 1 -0.52,-1.84 1.36,1.36 0 0 1 1.84,-0.52 z m -4.43,1.24 a 1.36,1.36 0 0 1 0.52,1.85 1.36,1.36 0 0 1 -1.85,0.52 1.36,1.36 0 0 1 -0.52,-1.85 1.36,1.36 0 0 1 1.85,-0.52 z m 5.68,3.2 a 1.36,1.36 0 0 1 0.52,1.84 1.36,1.36 0 0 1 -1.85,0.52 1.36,1.36 0 0 1 -0.52,-1.85 1.36,1.36 0 0 1 1.85,-0.52 z M 3.98,9.4 A 1.36,1.36 0 0 1 4.5,9.97 1.36,1.36 0 0 1 3.87,11.77 1.36,1.36 0 0 1 2.05,11.15 1.36,1.36 0 0 1 2.68,9.34 1.36,1.36 0 0 1 3.98,9.4 Z m 2.8,5.85 a 1.36,1.36 0 0 1 0.56,0.58 1.36,1.36 0 0 1 -0.63,1.82 1.36,1.36 0 0 1 -1.82,-0.63 1.36,1.36 0 0 1 0.63,-1.82 1.36,1.36 0 0 1 1.27,0.05 z"
     id="path9"
     inkscape:connector-curvature="0"
     style="fill:#e6e6e6;stroke-width:0.68000001" />
</svg>
